X:161
T:Scots Rant. (p)1657.PLFD.161
M:6/4
L:1/4
Q:3/4=120
S:Playford, Dancing Master,Supplement to 3rd Ed.,1657
O:England, London
H:1657.
Z:Chris Partington.
K:D
A2Ad2e|ef2e2d|ef2e2d|ef2B2A|
[1Bddd3:|[2Bddd2f/g/||:a2ba>gf|e2de2f/g/|
a2ba>gf|e2de2(d/e/)|f3B2A|Bddd2e|
f3B2A|[1Bddd2f/g/:|[2Bddd3|]
